!!! OTL: Berkowitz592
!!! Chapter: 1
!!! Section: V
!!! Page: 150
!!! Mode: 
!!! Encoder: AR
**kern
*staff1
=1-
!!pagebreak:original
*clefG2
*k[]
*C:
*M2/4
8.cc\L
16b\Jk
8.f/L
16f#/Jk
=2
8.cc\L
16b\Jk
8.fn/L
16f#/Jk
=3
8.cc\L
16ee\Jk
16ee-\
16r
16b-\
16r
=4
8.cc\L
16bn\Jk
4f#/
=5
8.e/L
16a#/Jk
8.b\L
16b-\Jk
=6
8.e/L
16a#/Jk
8.bn\L
16b-\Jk
=7
q0.332031ee-\L
q0.332031dd\
q0.335938an\J
4cc\
=8
!!linebreak:original
q0.332031dd-\L
q0.332031cc\
q0.335938g\J
4f#/
=9
8.d#/L
16e/Jk
8.b-/L
16e/Jk
=10
8.d#/L
16e/Jk
8.b-/L
16e-/Jk
=11
8.d-/L
16g/Jk
16bn\
16r
16g/
16r
=12
!!linebreak:original
8a/L
8a-/J
4e-/
=13
8.d-/L
16e-/Jk
8.en/L
16b/Jk
=14
q0.664062g/
q0.335938a/
8cc\L
8b\J
=15
8.b-/L
16a/Jk
8e/L
8g/J
=16
8e-/L
8f#/J
4d/
==
*-
